client/assets/img/icon-signout-hover.svg

<svg width="20" height="21" viewBox="0 0 20 21" xmlns="http://www.w3.org/2000/svg"><title>Untitled 2</title><path d="M15 12V9.5h-5V7h5V4.5l5 3.75L15 12zm-2.5-1.25h1.25v5c-.013.352-.137.645-.37.88-.235.233-.528.357-.88.37h-5v3.75L.684 17.352c-.21-.118-.375-.274-.498-.47C.062 16.688 0 16.467 0 16.22V2c.013-.352.137-.645.37-.88C.606.888.9.764 1.25.75H12.5c.352.013.645.137.88.37.233.235.357.528.37.88v3.75H12.5V2h-10l5 2.5v11.25h5v-5z" fill="#66CAFC" fill-rule="evenodd"/></svg>

<?xml version="1.0" encoding="UTF-8" standalone="no"?>
<svg width="20px" height="21px" viewBox="0 0 20 21" version="1.1" xmlns="http://www.w3.org/2000/svg" xmlns:xlink="http://www.w3.org/1999/xlink" xmlns:sketch="http://www.bohemiancoding.com/sketch/ns">
    <!-- Generator: Sketch 3.4.4 (17249) - http://www.bohemiancoding.com/sketch -->
    <title>Slice 1</title>
    <desc>Created with Sketch.</desc>
    <defs></defs>
    <g id="Page-1" stroke="none" stroke-width="1" fill="none" fill-rule="evenodd" sketch:type="MSPage">
        <g id="icon-signout-hover" sketch:type="MSLayerGroup" fill="#0DFFCD">
            <path d="M15,12 L15,9.5 L10,9.5 L10,7 L15,7 L15,4.5 L20,8.25 L15,12 L15,12 Z M12.5,10.75 L13.75,10.75 L13.75,15.75 C13.737,16.102 13.613,16.395 13.38,16.63 C13.145,16.863 12.852,16.987 12.5,17 L7.5,17 L7.5,20.75 L0.684,17.352 C0.474,17.234 0.309,17.078 0.186,16.882 C0.062,16.688 0,16.467 0,16.22 L0,2 C0.013,1.648 0.137,1.355 0.37,1.12 C0.606,0.888 0.9,0.764 1.25,0.75 L12.5,0.75 C12.852,0.763 13.145,0.887 13.38,1.12 C13.613,1.355 13.737,1.648 13.75,2 L13.75,5.75 L12.5,5.75 L12.5,2 L2.5,2 L7.5,4.5 L7.5,15.75 L12.5,15.75 L12.5,10.75 L12.5,10.75 Z" id="Shape" sketch:type="MSShapeGroup"></path>
        </g>
    </g>
</svg>
